X: 28879
T: Mystery Inch, The
R: jig
M: 6/8
K: Amajor
Fca gec|f2f ecB|ABc ecA|B/B/cA cGA|Fca gec|f2f ecB|ABc eag bge ce^e||
f2a gec|f2a ecB|ABc ecA|B/B/cA cGA|Fca gec|f2f ecB|ABc eag|bge cBA||
FcA BAE|cBA FAc|Bce e/e/ee|feB cAF|DAc BAF|EAc BAF|GBe gbe|ece fcB||
AFE DcB|AFE cBA|Bce e2e|efB cAF|DAc BAF|EAc BAF|GBe gbe|ece f3||
A"variation"FE Ddc|BAF Efe|cBA Fag|fec BAF|DAc BAF|EAc BAF|GBe gbe|ece f3||

